images/89105.svg

<?xml version="1.0" encoding="UTF-8"?>
<svg xmlns="http://www.w3.org/2000/svg" xmlns:xlink="http://www.w3.org/1999/xlink" width="300pt" height="300pt" viewBox="0 0 300 300" version="1.1">
<defs>
<g>
<symbol overflow="visible" id="glyph0-0">
<path style="stroke:none;" d="M 0.796875 2.828125 L 0.796875 -11.28125 L 8.796875 -11.28125 L 8.796875 2.828125 Z M 1.703125 1.9375 L 7.90625 1.9375 L 7.90625 -10.390625 L 1.703125 -10.390625 Z M 1.703125 1.9375 "/>
</symbol>
<symbol overflow="visible" id="glyph0-1">
<path style="stroke:none;" d="M 1.578125 -11.671875 L 3.703125 -11.671875 L 8.875 -1.90625 L 8.875 -11.671875 L 10.40625 -11.671875 L 10.40625 0 L 8.28125 0 L 3.109375 -9.765625 L 3.109375 0 L 1.578125 0 Z M 1.578125 -11.671875 "/>
</symbol>
<symbol overflow="visible" id="glyph0-2">
<path style="stroke:none;" d="M 6.3125 -10.59375 C 5.164062 -10.59375 4.253906 -10.164062 3.578125 -9.3125 C 2.898438 -8.457031 2.5625 -7.296875 2.5625 -5.828125 C 2.5625 -4.359375 2.898438 -3.195312 3.578125 -2.34375 C 4.253906 -1.488281 5.164062 -1.0625 6.3125 -1.0625 C 7.457031 -1.0625 8.363281 -1.488281 9.03125 -2.34375 C 9.695312 -3.195312 10.03125 -4.359375 10.03125 -5.828125 C 10.03125 -7.296875 9.695312 -8.457031 9.03125 -9.3125 C 8.363281 -10.164062 7.457031 -10.59375 6.3125 -10.59375 Z M 6.3125 -11.875 C 7.945312 -11.875 9.253906 -11.328125 10.234375 -10.234375 C 11.210938 -9.140625 11.703125 -7.671875 11.703125 -5.828125 C 11.703125 -3.984375 11.210938 -2.507812 10.234375 -1.40625 C 9.253906 -0.3125 7.945312 0.234375 6.3125 0.234375 C 4.664062 0.234375 3.351562 -0.3125 2.375 -1.40625 C 1.394531 -2.507812 0.90625 -3.984375 0.90625 -5.828125 C 0.90625 -7.671875 1.394531 -9.140625 2.375 -10.234375 C 3.351562 -11.328125 4.664062 -11.875 6.3125 -11.875 Z M 6.3125 -11.875 "/>
</symbol>
<symbol overflow="visible" id="glyph0-3">
<path style="stroke:none;" d="M 1.578125 -11.671875 L 3.15625 -11.671875 L 3.15625 -6.890625 L 8.890625 -6.890625 L 8.890625 -11.671875 L 10.46875 -11.671875 L 10.46875 0 L 8.890625 0 L 8.890625 -5.5625 L 3.15625 -5.5625 L 3.15625 0 L 1.578125 0 Z M 1.578125 -11.671875 "/>
</symbol>
<symbol overflow="visible" id="glyph1-0">
<path style="stroke:none;" d="M 0.640625 2.296875 L 0.640625 -9.171875 L 7.140625 -9.171875 L 7.140625 2.296875 Z M 1.375 1.578125 L 6.421875 1.578125 L 6.421875 -8.4375 L 1.375 -8.4375 Z M 1.375 1.578125 "/>
</symbol>
<symbol overflow="visible" id="glyph1-1">
<path style="stroke:none;" d="M 2.5 -1.078125 L 6.96875 -1.078125 L 6.96875 0 L 0.953125 0 L 0.953125 -1.078125 C 1.441406 -1.578125 2.101562 -2.25 2.9375 -3.09375 C 3.78125 -3.945312 4.3125 -4.5 4.53125 -4.75 C 4.9375 -5.207031 5.21875 -5.597656 5.375 -5.921875 C 5.539062 -6.242188 5.625 -6.554688 5.625 -6.859375 C 5.625 -7.367188 5.445312 -7.78125 5.09375 -8.09375 C 4.75 -8.40625 4.289062 -8.5625 3.71875 -8.5625 C 3.3125 -8.5625 2.882812 -8.492188 2.4375 -8.359375 C 2 -8.222656 1.523438 -8.007812 1.015625 -7.71875 L 1.015625 -9.015625 C 1.535156 -9.222656 2.019531 -9.378906 2.46875 -9.484375 C 2.914062 -9.597656 3.320312 -9.65625 3.6875 -9.65625 C 4.675781 -9.65625 5.460938 -9.40625 6.046875 -8.90625 C 6.628906 -8.414062 6.921875 -7.757812 6.921875 -6.9375 C 6.921875 -6.550781 6.847656 -6.179688 6.703125 -5.828125 C 6.554688 -5.484375 6.289062 -5.078125 5.90625 -4.609375 C 5.800781 -4.484375 5.460938 -4.125 4.890625 -3.53125 C 4.328125 -2.945312 3.53125 -2.128906 2.5 -1.078125 Z M 2.5 -1.078125 "/>
</symbol>
<symbol overflow="visible" id="glyph1-2">
<path style="stroke:none;" d="M 5.984375 -8.15625 L 5.984375 -4.609375 L 9.515625 -4.609375 L 9.515625 -3.53125 L 5.984375 -3.53125 L 5.984375 0 L 4.90625 0 L 4.90625 -3.53125 L 1.375 -3.53125 L 1.375 -4.609375 L 4.90625 -4.609375 L 4.90625 -8.15625 Z M 5.984375 -8.15625 "/>
</symbol>
<symbol overflow="visible" id="glyph1-3">
<path style="stroke:none;" d="M 0.640625 -4.078125 L 4.0625 -4.078125 L 4.0625 -3.046875 L 0.640625 -3.046875 Z M 0.640625 -4.078125 "/>
</symbol>
</g>
</defs>
<g id="surface29521">
<rect x="0" y="0" width="300" height="300" style="fill:rgb(100%,100%,100%);fill-opacity:1;stroke:none;"/>
<path style="fill:none;stroke-width:1.2;stroke-linecap:butt;stroke-linejoin:miter;stroke:rgb(0%,0%,0%);stroke-opacity:1;stroke-miterlimit:10;" d="M 63.347656 84.320312 L 46.414062 118.617188 "/>
<path style="fill:none;stroke-width:1.2;stroke-linecap:butt;stroke-linejoin:miter;stroke:rgb(0%,0%,100%);stroke-opacity:1;stroke-miterlimit:10;" d="M 84.582031 116.132812 L 73.964844 100.226562 "/>
<path style="fill:none;stroke-width:1.2;stroke-linecap:butt;stroke-linejoin:miter;stroke:rgb(0%,0%,0%);stroke-opacity:1;stroke-miterlimit:10;" d="M 73.964844 100.226562 L 63.347656 84.320312 "/>
<path style="fill:none;stroke-width:1.2;stroke-linecap:butt;stroke-linejoin:miter;stroke:rgb(0%,0%,0%);stroke-opacity:1;stroke-miterlimit:10;" d="M 46.414062 118.617188 L 65.496094 117.375 "/>
<path style="fill:none;stroke-width:1.2;stroke-linecap:butt;stroke-linejoin:miter;stroke:rgb(0%,0%,100%);stroke-opacity:1;stroke-miterlimit:10;" d="M 65.496094 117.375 L 84.582031 116.132812 "/>
<path style="fill:none;stroke-width:1.2;stroke-linecap:butt;stroke-linejoin:miter;stroke:rgb(0%,0%,100%);stroke-opacity:1;stroke-miterlimit:10;" d="M 84.582031 116.132812 L 101.730469 124.601562 "/>
<path style="fill:none;stroke-width:1.2;stroke-linecap:butt;stroke-linejoin:miter;stroke:rgb(0%,0%,0%);stroke-opacity:1;stroke-miterlimit:10;" d="M 101.730469 124.601562 L 118.878906 133.066406 "/>
<path style=" stroke:none;fill-rule:nonzero;fill:rgb(100%,100%,100%);fill-opacity:1;" d="M 78.582031 106.632812 L 90.582031 106.632812 L 90.582031 125.632812 L 78.582031 125.632812 Z M 78.582031 106.632812 "/>
<g style="fill:rgb(0%,0%,100%);fill-opacity:1;">
  <use xlink:href="#glyph0-1" x="78.582031" y="121.484375"/>
</g>
<path style="fill:none;stroke-width:1.2;stroke-linecap:butt;stroke-linejoin:miter;stroke:rgb(0%,0%,0%);stroke-opacity:1;stroke-miterlimit:10;" d="M 118.878906 133.066406 L 121.363281 171.234375 "/>
<path style="fill:none;stroke-width:1.2;stroke-linecap:butt;stroke-linejoin:miter;stroke:rgb(0%,0%,0%);stroke-opacity:1;stroke-miterlimit:10;" d="M 128.109375 136.300781 L 130.097656 166.835938 "/>
<path style="fill:none;stroke-width:1.2;stroke-linecap:butt;stroke-linejoin:miter;stroke:rgb(0%,0%,0%);stroke-opacity:1;stroke-miterlimit:10;" d="M 150.695312 111.832031 L 118.878906 133.066406 "/>
<path style="fill:none;stroke-width:1.2;stroke-linecap:butt;stroke-linejoin:miter;stroke:rgb(0%,0%,0%);stroke-opacity:1;stroke-miterlimit:10;" d="M 121.363281 171.234375 L 155.664062 188.167969 "/>
<path style="fill:none;stroke-width:1.2;stroke-linecap:butt;stroke-linejoin:miter;stroke:rgb(0%,0%,0%);stroke-opacity:1;stroke-miterlimit:10;" d="M 121.363281 171.234375 L 105.457031 181.855469 "/>
<path style="fill:none;stroke-width:1.2;stroke-linecap:butt;stroke-linejoin:miter;stroke:rgb(0%,0%,100%);stroke-opacity:1;stroke-miterlimit:10;" d="M 105.457031 181.855469 L 89.550781 192.472656 "/>
<path style="fill:none;stroke-width:1.2;stroke-linecap:butt;stroke-linejoin:miter;stroke:rgb(0%,0%,0%);stroke-opacity:1;stroke-miterlimit:10;" d="M 155.664062 188.167969 L 187.476562 166.933594 "/>
<path style="fill:none;stroke-width:1.2;stroke-linecap:butt;stroke-linejoin:miter;stroke:rgb(0%,0%,0%);stroke-opacity:1;stroke-miterlimit:10;" d="M 153.847656 178.558594 L 179.296875 161.570312 "/>
<path style="fill:none;stroke-width:1.2;stroke-linecap:butt;stroke-linejoin:miter;stroke:rgb(0%,0%,0%);stroke-opacity:1;stroke-miterlimit:10;" d="M 187.476562 166.933594 L 184.992188 128.765625 "/>
<path style="fill:none;stroke-width:1.2;stroke-linecap:butt;stroke-linejoin:miter;stroke:rgb(0%,0%,0%);stroke-opacity:1;stroke-miterlimit:10;" d="M 187.476562 166.933594 L 204.625 175.398438 "/>
<path style="fill:none;stroke-width:1.2;stroke-linecap:butt;stroke-linejoin:miter;stroke:rgb(0%,0%,100%);stroke-opacity:1;stroke-miterlimit:10;" d="M 204.625 175.398438 L 221.773438 183.867188 "/>
<path style="fill:none;stroke-width:1.2;stroke-linecap:butt;stroke-linejoin:miter;stroke:rgb(0%,0%,0%);stroke-opacity:1;stroke-miterlimit:10;" d="M 184.992188 128.765625 L 150.695312 111.832031 "/>
<path style="fill:none;stroke-width:1.2;stroke-linecap:butt;stroke-linejoin:miter;stroke:rgb(0%,0%,0%);stroke-opacity:1;stroke-miterlimit:10;" d="M 177.578125 135.140625 L 150.140625 121.59375 "/>
<path style="fill:none;stroke-width:1.2;stroke-linecap:butt;stroke-linejoin:miter;stroke:rgb(0%,0%,0%);stroke-opacity:1;stroke-miterlimit:10;" d="M 184.992188 128.765625 L 216.804688 107.527344 "/>
<path style="fill:none;stroke-width:1.2;stroke-linecap:butt;stroke-linejoin:miter;stroke:rgb(0%,0%,0%);stroke-opacity:1;stroke-miterlimit:10;" d="M 221.296875 107.234375 L 220.054688 88.152344 "/>
<path style="fill:none;stroke-width:1.2;stroke-linecap:butt;stroke-linejoin:miter;stroke:rgb(100%,0%,0%);stroke-opacity:1;stroke-miterlimit:10;" d="M 220.054688 88.152344 L 218.8125 69.066406 "/>
<path style="fill:none;stroke-width:1.2;stroke-linecap:butt;stroke-linejoin:miter;stroke:rgb(0%,0%,0%);stroke-opacity:1;stroke-miterlimit:10;" d="M 212.3125 107.820312 L 211.070312 88.734375 "/>
<path style="fill:none;stroke-width:1.2;stroke-linecap:butt;stroke-linejoin:miter;stroke:rgb(100%,0%,0%);stroke-opacity:1;stroke-miterlimit:10;" d="M 211.070312 88.734375 L 209.828125 69.652344 "/>
<path style="fill:none;stroke-width:1.2;stroke-linecap:butt;stroke-linejoin:miter;stroke:rgb(0%,0%,0%);stroke-opacity:1;stroke-miterlimit:10;" d="M 216.804688 107.527344 L 233.953125 115.996094 "/>
<path style="fill:none;stroke-width:1.2;stroke-linecap:butt;stroke-linejoin:miter;stroke:rgb(0%,0%,100%);stroke-opacity:1;stroke-miterlimit:10;" d="M 233.953125 115.996094 L 251.101562 124.460938 "/>
<path style=" stroke:none;fill-rule:nonzero;fill:rgb(100%,100%,100%);fill-opacity:1;" d="M 208.320312 59.859375 L 221.320312 59.859375 L 221.320312 78.859375 L 208.320312 78.859375 Z M 208.320312 59.859375 "/>
<g style="fill:rgb(100%,0%,0%);fill-opacity:1;">
  <use xlink:href="#glyph0-2" x="208.320312" y="74.710938"/>
</g>
<path style=" stroke:none;fill-rule:nonzero;fill:rgb(100%,100%,100%);fill-opacity:1;" d="M 235.101562 112.960938 L 268.101562 112.960938 L 268.101562 135.960938 L 235.101562 135.960938 Z M 235.101562 112.960938 "/>
<g style="fill:rgb(0%,0%,100%);fill-opacity:1;">
  <use xlink:href="#glyph0-1" x="235.101562" y="127.8125"/>
  <use xlink:href="#glyph0-3" x="247.070312" y="127.8125"/>
</g>
<g style="fill:rgb(0%,0%,100%);fill-opacity:1;">
  <use xlink:href="#glyph1-1" x="259.101562" y="132.695312"/>
</g>
<path style="fill:none;stroke-width:1.2;stroke-linecap:butt;stroke-linejoin:miter;stroke:rgb(0%,0%,100%);stroke-opacity:1;stroke-miterlimit:10;" d="M 224.273438 187.609375 L 240.179688 176.992188 "/>
<path style="fill:none;stroke-width:1.2;stroke-linecap:butt;stroke-linejoin:miter;stroke:rgb(100%,0%,0%);stroke-opacity:1;stroke-miterlimit:10;" d="M 240.179688 176.992188 L 256.085938 166.371094 "/>
<path style="fill:none;stroke-width:1.2;stroke-linecap:butt;stroke-linejoin:miter;stroke:rgb(0%,0%,100%);stroke-opacity:1;stroke-miterlimit:10;" d="M 219.273438 180.125 L 235.183594 169.503906 "/>
<path style="fill:none;stroke-width:1.2;stroke-linecap:butt;stroke-linejoin:miter;stroke:rgb(100%,0%,0%);stroke-opacity:1;stroke-miterlimit:10;" d="M 235.183594 169.503906 L 251.089844 158.886719 "/>
<path style="fill:none;stroke-width:1.2;stroke-linecap:butt;stroke-linejoin:miter;stroke:rgb(0%,0%,100%);stroke-opacity:1;stroke-miterlimit:10;" d="M 221.773438 183.867188 L 223.015625 202.949219 "/>
<path style="fill:none;stroke-width:1.2;stroke-linecap:butt;stroke-linejoin:miter;stroke:rgb(100%,0%,0%);stroke-opacity:1;stroke-miterlimit:10;" d="M 223.015625 202.949219 L 224.257812 222.035156 "/>
<path style=" stroke:none;fill-rule:nonzero;fill:rgb(100%,100%,100%);fill-opacity:1;" d="M 209.773438 172.867188 L 233.773438 172.867188 L 233.773438 194.867188 L 209.773438 194.867188 Z M 209.773438 172.867188 "/>
<g style="fill:rgb(0%,0%,100%);fill-opacity:1;">
  <use xlink:href="#glyph0-1" x="209.773438" y="190.125977"/>
</g>
<g style="fill:rgb(0%,0%,100%);fill-opacity:1;">
  <use xlink:href="#glyph1-2" x="221.742188" y="185.243164"/>
</g>
<path style=" stroke:none;fill-rule:nonzero;fill:rgb(100%,100%,100%);fill-opacity:1;" d="M 247.585938 153.128906 L 260.585938 153.128906 L 260.585938 172.128906 L 247.585938 172.128906 Z M 247.585938 153.128906 "/>
<g style="fill:rgb(100%,0%,0%);fill-opacity:1;">
  <use xlink:href="#glyph0-2" x="247.585938" y="167.980469"/>
</g>
<path style=" stroke:none;fill-rule:nonzero;fill:rgb(100%,100%,100%);fill-opacity:1;" d="M 215.257812 211.035156 L 233.257812 211.035156 L 233.257812 233.035156 L 215.257812 233.035156 Z M 215.257812 211.035156 "/>
<g style="fill:rgb(100%,0%,0%);fill-opacity:1;">
  <use xlink:href="#glyph0-2" x="215.257812" y="228.293945"/>
</g>
<g style="fill:rgb(100%,0%,0%);fill-opacity:1;">
  <use xlink:href="#glyph1-3" x="227.851562" y="223.411133"/>
</g>
<path style="fill:none;stroke-width:1.2;stroke-linecap:butt;stroke-linejoin:miter;stroke:rgb(0%,0%,100%);stroke-opacity:1;stroke-miterlimit:10;" d="M 91.542969 188.4375 L 74.394531 179.972656 "/>
<path style="fill:none;stroke-width:1.2;stroke-linecap:butt;stroke-linejoin:miter;stroke:rgb(100%,0%,0%);stroke-opacity:1;stroke-miterlimit:10;" d="M 74.394531 179.972656 L 57.246094 171.503906 "/>
<path style="fill:none;stroke-width:1.2;stroke-linecap:butt;stroke-linejoin:miter;stroke:rgb(0%,0%,100%);stroke-opacity:1;stroke-miterlimit:10;" d="M 87.558594 196.507812 L 70.410156 188.039062 "/>
<path style="fill:none;stroke-width:1.2;stroke-linecap:butt;stroke-linejoin:miter;stroke:rgb(100%,0%,0%);stroke-opacity:1;stroke-miterlimit:10;" d="M 70.410156 188.039062 L 53.261719 179.574219 "/>
<path style="fill:none;stroke-width:1.2;stroke-linecap:butt;stroke-linejoin:miter;stroke:rgb(0%,0%,100%);stroke-opacity:1;stroke-miterlimit:10;" d="M 89.550781 192.472656 L 90.792969 211.558594 "/>
<path style="fill:none;stroke-width:1.2;stroke-linecap:butt;stroke-linejoin:miter;stroke:rgb(100%,0%,0%);stroke-opacity:1;stroke-miterlimit:10;" d="M 90.792969 211.558594 L 92.035156 230.640625 "/>
<path style=" stroke:none;fill-rule:nonzero;fill:rgb(100%,100%,100%);fill-opacity:1;" d="M 77.550781 181.472656 L 101.550781 181.472656 L 101.550781 203.472656 L 77.550781 203.472656 Z M 77.550781 181.472656 "/>
<g style="fill:rgb(0%,0%,100%);fill-opacity:1;">
  <use xlink:href="#glyph0-1" x="77.550781" y="198.731445"/>
</g>
<g style="fill:rgb(0%,0%,100%);fill-opacity:1;">
  <use xlink:href="#glyph1-2" x="89.519531" y="193.848633"/>
</g>
<path style=" stroke:none;fill-rule:nonzero;fill:rgb(100%,100%,100%);fill-opacity:1;" d="M 42.253906 166.039062 L 55.253906 166.039062 L 55.253906 185.039062 L 42.253906 185.039062 Z M 42.253906 166.039062 "/>
<g style="fill:rgb(100%,0%,0%);fill-opacity:1;">
  <use xlink:href="#glyph0-2" x="42.253906" y="180.890625"/>
</g>
<path style=" stroke:none;fill-rule:nonzero;fill:rgb(100%,100%,100%);fill-opacity:1;" d="M 83.035156 219.640625 L 101.035156 219.640625 L 101.035156 241.640625 L 83.035156 241.640625 Z M 83.035156 219.640625 "/>
<g style="fill:rgb(100%,0%,0%);fill-opacity:1;">
  <use xlink:href="#glyph0-2" x="83.035156" y="236.899414"/>
</g>
<g style="fill:rgb(100%,0%,0%);fill-opacity:1;">
  <use xlink:href="#glyph1-3" x="95.628906" y="232.016602"/>
</g>
</g>
</svg>

<svg xmlns="http://www.w3.org/2000/svg" xmlns:xlink="http://www.w3.org/1999/xlink" width="300pt" height="300pt" viewBox="0 0 300 300"><defs><symbol overflow="visible"><path d="M.797 2.828v-14.11h8V2.83zm.906-.89h6.203v-12.33H1.703zm0 0"/></symbol><symbol overflow="visible" id="a"><path d="M1.578-11.672h2.125l5.172 9.766v-9.766h1.53V0H8.282L3.11-9.766V0H1.577zm0 0"/></symbol><symbol overflow="visible" id="b"><path d="M6.313-10.594c-1.15 0-2.06.43-2.735 1.28-.68.857-1.015 2.017-1.015 3.486 0 1.47.335 2.633 1.015 3.484.676.856 1.586 1.28 2.735 1.28 1.144.002 2.05-.424 2.718-1.28.665-.85 1-2.015 1-3.484 0-1.47-.335-2.63-1-3.484-.667-.852-1.573-1.282-2.717-1.282zm0-1.28c1.632 0 2.94.546 3.92 1.64.978 1.093 1.47 2.562 1.47 4.406 0 1.844-.492 3.32-1.47 4.422-.98 1.093-2.288 1.64-3.92 1.64-1.65 0-2.96-.546-3.938-1.64-.98-1.102-1.47-2.578-1.47-4.422 0-1.844.49-3.313 1.47-4.406.977-1.094 2.29-1.64 3.938-1.64zm0 0"/></symbol><symbol overflow="visible" id="c"><path d="M1.578-11.672h1.578v4.78H8.89v-4.78h1.58V0H8.89v-5.563H3.157V0H1.578zm0 0"/></symbol><symbol overflow="visible"><path d="M.64 2.297v-11.47h6.5v11.47zm.735-.72h5.047V-8.436H1.375zm0 0"/></symbol><symbol overflow="visible" id="d"><path d="M2.5-1.078h4.47V0H.952v-1.078c.488-.5 1.15-1.172 1.985-2.016C3.78-3.944 4.312-4.5 4.53-4.75c.407-.457.69-.848.845-1.172.164-.32.25-.633.25-.937 0-.507-.18-.92-.53-1.234-.345-.312-.806-.47-1.376-.47-.408.002-.837.072-1.283.205-.437.137-.914.352-1.42.64v-1.296c.518-.207 1.003-.363 1.452-.468.444-.114.85-.172 1.217-.172.99 0 1.774.25 2.36.75.582.492.875 1.148.875 1.97 0 .385-.074.756-.22 1.108-.147.344-.413.75-.796 1.22-.105.124-.445.483-1.015 1.077-.562.585-1.36 1.4-2.39 2.452zm0 0"/></symbol><symbol overflow="visible" id="e"><path d="M5.984-8.156v3.547h3.532v1.08H5.984V0H4.906v-3.53h-3.53v-1.08h3.53v-3.546zm0 0"/></symbol><symbol overflow="visible" id="f"><path d="M.64-4.078h3.422v1.03H.643zm0 0"/></symbol></defs><g><path fill="#fff" d="M0 0h300v300H0z"/><path d="M63.348 84.32l-16.934 34.297" stroke-width="1.2" stroke="#000" stroke-miterlimit="10" fill="none"/><path d="M84.582 116.133l-10.617-15.906" stroke-width="1.2" stroke="#00f" stroke-miterlimit="10" fill="none"/><path d="M73.965 100.227L63.348 84.32M46.414 118.617l19.082-1.242" stroke-width="1.2" stroke="#000" stroke-miterlimit="10" fill="none"/><path d="M65.496 117.375l19.086-1.242M84.582 116.133l17.148 8.47" stroke-width="1.2" stroke="#00f" stroke-miterlimit="10" fill="none"/><path d="M101.73 124.602l17.15 8.464" stroke-width="1.2" stroke="#000" stroke-miterlimit="10" fill="none"/><path d="M78.582 106.633h12v19h-12zm0 0" fill="#fff"/><use xlink:href="#a" x="78.582" y="121.484" fill="#00f"/><path d="M118.88 133.066l2.483 38.168M128.11 136.3l1.988 30.536M150.695 111.832l-31.816 21.234M121.363 171.234l34.3 16.934M121.363 171.234l-15.906 10.62" stroke-width="1.2" stroke="#000" stroke-miterlimit="10" fill="none"/><path d="M105.457 181.855L89.55 192.473" stroke-width="1.2" stroke="#00f" stroke-miterlimit="10" fill="none"/><path d="M155.664 188.168l31.813-21.234M153.848 178.56l25.45-16.99M187.477 166.934l-2.485-38.168M187.477 166.934l17.148 8.464" stroke-width="1.2" stroke="#000" stroke-miterlimit="10" fill="none"/><path d="M204.625 175.398l17.148 8.47" stroke-width="1.2" stroke="#00f" stroke-miterlimit="10" fill="none"/><path d="M184.992 128.766l-34.297-16.934M177.578 135.14l-27.437-13.546M184.992 128.766l31.813-21.24M221.297 107.234l-1.242-19.082" stroke-width="1.2" stroke="#000" stroke-miterlimit="10" fill="none"/><path d="M220.055 88.152l-1.243-19.086" stroke-width="1.2" stroke="#f00" stroke-miterlimit="10" fill="none"/><path d="M212.313 107.82l-1.243-19.086" stroke-width="1.2" stroke="#000" stroke-miterlimit="10" fill="none"/><path d="M211.07 88.734l-1.242-19.082" stroke-width="1.2" stroke="#f00" stroke-miterlimit="10" fill="none"/><path d="M216.805 107.527l17.148 8.47" stroke-width="1.2" stroke="#000" stroke-miterlimit="10" fill="none"/><path d="M233.953 115.996l17.15 8.465" stroke-width="1.2" stroke="#00f" stroke-miterlimit="10" fill="none"/><path d="M208.32 59.86h13v19h-13zm0 0" fill="#fff"/><use xlink:href="#b" x="208.32" y="74.711" fill="#f00"/><path d="M235.102 112.96h33v23h-33zm0 0" fill="#fff"/><g fill="#00f"><use xlink:href="#a" x="235.102" y="127.813"/><use xlink:href="#c" x="247.07" y="127.813"/></g><use xlink:href="#d" x="259.102" y="132.695" fill="#00f"/><path d="M224.273 187.61l15.907-10.618" stroke-width="1.2" stroke="#00f" stroke-miterlimit="10" fill="none"/><path d="M240.18 176.992l15.906-10.62" stroke-width="1.2" stroke="#f00" stroke-miterlimit="10" fill="none"/><path d="M219.273 180.125l15.91-10.62" stroke-width="1.2" stroke="#00f" stroke-miterlimit="10" fill="none"/><path d="M235.184 169.504l15.906-10.617" stroke-width="1.2" stroke="#f00" stroke-miterlimit="10" fill="none"/><path d="M221.773 183.867l1.243 19.082" stroke-width="1.2" stroke="#00f" stroke-miterlimit="10" fill="none"/><path d="M223.016 202.95l1.242 19.085" stroke-width="1.2" stroke="#f00" stroke-miterlimit="10" fill="none"/><path d="M209.773 172.867h24v22h-24zm0 0" fill="#fff"/><use xlink:href="#a" x="209.773" y="190.126" fill="#00f"/><use xlink:href="#e" x="221.742" y="185.243" fill="#00f"/><path d="M247.586 153.13h13v19h-13zm0 0" fill="#fff"/><use xlink:href="#b" x="247.586" y="167.98" fill="#f00"/><path d="M215.258 211.035h18v22h-18zm0 0" fill="#fff"/><use xlink:href="#b" x="215.258" y="228.294" fill="#f00"/><use xlink:href="#f" x="227.852" y="223.411" fill="#f00"/><path d="M91.543 188.438l-17.148-8.465" stroke-width="1.2" stroke="#00f" stroke-miterlimit="10" fill="none"/><path d="M74.395 179.973l-17.15-8.47" stroke-width="1.2" stroke="#f00" stroke-miterlimit="10" fill="none"/><path d="M87.56 196.508l-17.15-8.47" stroke-width="1.2" stroke="#00f" stroke-miterlimit="10" fill="none"/><path d="M70.41 188.04l-17.148-8.466" stroke-width="1.2" stroke="#f00" stroke-miterlimit="10" fill="none"/><path d="M89.55 192.473l1.243 19.086" stroke-width="1.2" stroke="#00f" stroke-miterlimit="10" fill="none"/><path d="M90.793 211.56l1.242 19.08" stroke-width="1.2" stroke="#f00" stroke-miterlimit="10" fill="none"/><path d="M77.55 181.473h24v22h-24zm0 0" fill="#fff"/><use xlink:href="#a" x="77.551" y="198.731" fill="#00f"/><use xlink:href="#e" x="89.52" y="193.849" fill="#00f"/><path d="M42.254 166.04h13v19h-13zm0 0" fill="#fff"/><use xlink:href="#b" x="42.254" y="180.891" fill="#f00"/><path d="M83.035 219.64h18v22h-18zm0 0" fill="#fff"/><use xlink:href="#b" x="83.035" y="236.899" fill="#f00"/><use xlink:href="#f" x="95.629" y="232.017" fill="#f00"/></g></svg>
